X:1
T:Title
%%score { ( 1 4 ) | ( 2 3 ) }
L:1/8
Q:1/4=100
M:4/4
K:Db
V:1 treble nm="Grand Piano"
V:4 treble 
V:2 bass 
V:3 bass 
V:1
 [FA]2 [FA]2 [FA]2 [GB]>[FA] | F2 F>F F4 | [Fd]2 [Gd]>[DAd] [DBd][DAc] [DGB]2 | %3
w: Charles~H.~Gabriel * * * *|||
 [DA]2 [A,CG]>[A,DF] [A,CE]2 [GA]2 | [FA]2 [FA]2 [FA]2 [GB]>[FA] | F2 F>F F4 | %6
w: |||
 [Fd]2 [Fc]>[FB] e2 c>A |[M:5/4] c>c B2 z2 G4 |[M:4/4] [Fd]2 [Ad]2 d2 c>B | %9
w: |||
 [FA]>[FA] [A,DF]2 [DFA]4 | [DFd]2 [Fd]2 [Ed]2 [Ec]>[EB] | z4 c4 | [Fd]2 [Gc]>[GB] A2 F>F | %13
w: ||||
 G>G A>A B4 | [Gc]2 c>c d A2 G | F2 [CE]>[CE] D4 |] %16
w: |||
V:2
 [D,D]2 [D,D]2 [D,D]2 [D,D]>[D,D] | [D,A,D]2 [D,A,D]>[D,A,D] [D,A,D]4 | %2
 [D,A,]2 [E,A,]>F, G,G, G,2 | F,2 E,>D, z2 C2 | [D,D]2 [D,D]2 [D,D]2 [D,D]>[D,D] | %5
 [D,A,D]2 [D,A,D]>[D,A,D] [D,A,D]4 | [B,,B,]2 [C,=A,]>[D,B,] [E,CE]2 [E,_A,E]>[E,A,C] | %7
[M:5/4] [E,A,E]>[E,A,E] [E,=G,D]2 C2 z4 |[M:4/4] [D,A,]2 [F,A,]2 [G,B,G]2 [G,B,G]>[G,DG] | %9
 [D,D]>[D,D] D,2 D,4 | B,,2 [B,,B,]2 [E,=G,]2 [E,G,]>[D,G,] | [C,A,]>[C,A,] [B,,=G,]2 [A,,A,]4 | %12
 [D,A,]2 [D,B,]>[D,C] [D,D]2 [D,A,D]>[D,A,D] | [E,A,C]>[E,A,C] [F,A,D]>[F,A,D] [G,DG]4 | %14
 [E,A,]2 [G,A,E]>[G,A,E] [F,A,D] [F,D]2 [G,B,D] | [A,D]2 [A,,G,]>[A,,G,] [D,F,]4 |] %16
V:3
 x8 | x8 | x8 | z4 A,,4 | x8 | x8 | x8 |[M:5/4] z4 A,6 |[M:4/4] x8 | x8 | x8 | x8 | x8 | x8 | x8 | %15
 x8 |] %16
V:4
 x8 | x8 | x8 | x8 | x8 | x8 | x8 |[M:5/4] z4 A6 |[M:4/4] x8 | x8 | x8 | [Ee]>[Ee] [Ed]2 E2 G2 | %12
 x8 | x8 | x8 | x8 |] %16

